Numix-GalliumOS/16/status/non-starred.svg

<?xml version="1.0" encoding="UTF-8" standalone="no"?>
<svg
   xmlns:dc="http://purl.org/dc/elements/1.1/"
   xmlns:cc="http://creativecommons.org/ns#"
   xmlns:rdf="http://www.w3.org/1999/02/22-rdf-syntax-ns#"
   xmlns:svg="http://www.w3.org/2000/svg"
   xmlns="http://www.w3.org/2000/svg"
   xmlns:sodipodi="http://sodipodi.sourceforge.net/DTD/sodipodi-0.dtd"
   xmlns:inkscape="http://www.inkscape.org/namespaces/inkscape"
   viewBox="0 0 16 16"
   id="svg2"
   version="1.1"
   inkscape:version="0.91 r13725"
   width="100%"
   height="100%"
   sodipodi:docname="non-starred.svg">
  <metadata
     id="metadata12">
    <rdf:RDF>
      <cc:Work
         rdf:about="">
        <dc:format>image/svg+xml</dc:format>
        <dc:type
           rdf:resource="http://purl.org/dc/dcmitype/StillImage" />
        <dc:title></dc:title>
      </cc:Work>
    </rdf:RDF>
  </metadata>
  <defs
     id="defs10" />
  <sodipodi:namedview
     pagecolor="#ffffff"
     bordercolor="#666666"
     borderopacity="1"
     objecttolerance="10"
     gridtolerance="10"
     guidetolerance="10"
     inkscape:pageopacity="0"
     inkscape:pageshadow="2"
     inkscape:window-width="1366"
     inkscape:window-height="704"
     id="namedview8"
     showgrid="true"
     inkscape:zoom="29.5"
     inkscape:cx="4.4364883"
     inkscape:cy="8.363615"
     inkscape:window-x="0"
     inkscape:window-y="27"
     inkscape:window-maximized="1"
     inkscape:current-layer="svg2">
    <inkscape:grid
       type="xygrid"
       id="grid3758" />
  </sodipodi:namedview>
  <path
     inkscape:connector-curvature="0"
     id="path6"
     d="M 8.0160825,0.7500025 C 7.0207688,0.745991 6.4610863,4.3004506 5.6534409,4.886885 4.8461139,5.4730887 1.3325326,4.8743489 1.0214199,5.8270854 0.7101879,6.780183 3.888672,8.4129327 4.1923337,9.3685073 4.4958759,10.323702 2.8611965,13.508158 3.663848,14.100851 c 0.8029699,0.592923 3.3258334,-1.947223 4.3211471,-1.943081 0.9949258,0.004 3.4828819,2.592175 4.2900599,2.005761 C 13.082551,13.576886 11.466176,10.352865 11.777657,9.3998473 12.089008,8.4472111 15.283449,6.8448788 14.979658,5.8897655 14.675747,4.9342711 11.150447,5.5113586 10.347637,4.918225 9.5451344,4.325322 9.0110083,0.7538837 8.0160825,0.7500025 Z"
     style="color:#000000;fill:#808080;fill-opacity:1"
     sodipodi:nodetypes="csssscssssc" />
</svg>

<svg xmlns="http://www.w3.org/2000/svg" viewBox="0 0 16 16">
 <path d="m 8.02 0.75 c -0.995 -0.004 -1.555 3.55 -2.363 4.137 -0.807 0.586 -4.321 -0.013 -4.632 0.94 -0.311 0.953 2.867 2.586 3.171 3.541 0.304 0.955 -1.331 4.14 -0.528 4.732 c 0.803 0.593 3.326 -1.947 4.321 -1.943 0.995 0.004 3.483 2.592 4.29 2.01 c 0.807 -0.587 -0.809 -3.811 -0.497 -4.764 0.311 -0.953 3.506 -2.555 3.202 -3.51 -0.304 -0.955 -3.829 -0.378 -4.632 -0.972 -0.803 -0.593 -1.337 -4.164 -2.332 -4.168" style="fill:#808080;fill-opacity:1;color:#000"/>
</svg>
